svgs/sharp-regular/window-restore.svg

<svg xmlns="http://www.w3.org/2000/svg" viewBox="0 0 512 512"><!--! Font Awesome Pro 6.6.0 by @fontawesome - https://fontawesome.com License - https://fontawesome.com/license (Commercial License) Copyright 2024 Fonticons, Inc. --><path d="M464 48L176 48l0 48-48 0 0-48 0-48 48 0L464 0l48 0 0 48 0 288 0 48-48 0-48 0 0-48 48 0 0-288zM48 464l288 0 0-208L48 256l0 208zm0-336l288 0 48 0 0 48 0 288 0 48-48 0L48 512 0 512l0-48L0 176l0-48 48 0z"/></svg>

<svg xmlns="http://www.w3.org/2000/svg" viewBox="0 0 512 512"><!--! Font Awesome Pro 6.4.0 by @fontawesome - https://fontawesome.com License - https://fontawesome.com/license (Commercial License) Copyright 2023 Fonticons, Inc. --><path d="M464 48H176V96H128V48 0h48H464h48V48 336v48H464 416V336h48V48zM48 464H336V256H48V464zm0-336H336h48v48V464v48H336 48 0V464 176 128H48z"/></svg>
